!!!OTL: Jiezhenguo zhenyingyong
!!!ARE: Asia, China,ÿHebei Tangshan
!! III, 54
!!!SCT: C1930
!!!YEM: Copyright 1995, estate of Helmut Schaffrath.
**kern
*ICvox
*Ivox
*M2/4
*k[b-]
*F:
{8a
8ff
4dd
=1
8g
8a
4cc
=2
8a
8cc
8dd
8ff
=3
8cc
8a
4g}
=4
{8a
8d
8f
8f
=5
8d
8a
4g
=6
8a
8d
8a
8cc
=7
8e
8d
4c}
=8
{8a
8d
8a
8cc
=9
8e
8d
4c}
==
!!!AGN: Xiaodiao
!!!AMT: simple duple
!!!AIN: vox
!!!EED: Helmut Schaffrath
!!!EEV: 1.0
*-
